X: 21521
T: Pioberachd Mhie Dhonuil
%R: air, jig
B: James Oswald "The Caledonian Pocket Companion" v.2 p.152 #1
Z: 2018 John Chambers <jc:trillian.mit.edu>
M: 6/8
L: 1/16
K: Amix
%%text To begin slow & increased in quickness to the End
% Original staff breaks preserved for no good reason.
|: "_Slow"\
e3dc2 (c4A2) | e3dc2 (B4A2) | e3dc2 (B2c2)a2 | e3dc2 (c4A2) | e3dc2 (B2c2)a2 | e3dc2 B4HA2 ::
e3dc2 e2A2A2 | e3dc2 (c4A2) | e3dc2 e2A2a2 | e3dc2 c4A2 | e3dc2 B4a2 | f3ec2 (B4A2) ::
(e4c2) (e4A2) | (e4c2) (B4A2) | (e4c2) (B4a2) | (f4e2) (c4A2) | (e4c2) (a4e2) | (f2e2)c2  B4A2 :: {a}e2ccc2 {a}e2AAA2 |
{a}e2ccc2 (B4A2) | {a}e2ccc2 Bc3a2 | {a}e2ccc2 c4A2 | {a}e2ccc2 B4a2 | {a}e2ccc2 (B4A) ::
(a2e2)c2 (a2e2)A2 | (a2e2)c2 (a2e2B2) | (a2e2)c2 (B2c2)a2 | (a2e2)c2 c4A2 | (a2e2)c2 (B2c2)a2 | (g2e2)c2 (B4A) ::
A2aaa2 c2aaa2 | A2aaa2 B2aaa2 | A2aaa2 c2aaa2 | f2eee2 c2AAA2 |
A2aaa2 c2aaa2 | e3dc2 (B4A2) :: (a^gfe)c2 (a^gfe)d2 | (a^gfe)c2 (a^gfe)B2 |
(a^gfe)c2 (a^gfe)d2 |  (a^gfe)c2 (a^gfe)A2 |  (a^gfe)c2 (Bc3)a2 | e3dc2 TB4A2 :|
%%text End with the first part


